assets/icons/arrow-up.svg

<svg width="24" height="25" viewBox="0 0 24 25" fill="none" xmlns="http://www.w3.org/2000/svg">
<path d="M3.97434 18.8029C3.65871 19.165 3.10031 19.2478 2.68133 18.9797C2.26245 18.7116 2.13168 18.1878 2.36426 17.7727L2.41568 17.6911L9.63963 7.45513C10.2031 6.65668 11.0411 6.13755 12 6.13755C12.899 6.13755 13.692 6.59331 14.2518 7.30823L14.3604 7.45513L21.5843 17.6911L21.6357 17.7727C21.8683 18.1878 21.7376 18.7116 21.3187 18.9797C20.8997 19.2478 20.3413 19.165 20.0257 18.8029L19.9657 18.7267L12.7417 8.4907L12.6341 8.35196C12.3828 8.06026 12.145 7.99468 12 7.99468C11.8344 7.99468 11.5479 8.08039 11.2583 8.4907L4.03433 18.7267L3.97434 18.8029Z" fill="#111111"/>
</svg>

<svg xmlns="http://www.w3.org/2000/svg" width="24" height="25" fill="none" viewBox="0 0 24 25"><path fill="#111" d="M3.974 18.803a1.01 1.01 0 0 1-1.293.177.903.903 0 0 1-.317-1.207l.052-.082L9.64 7.455c.563-.798 1.401-1.317 2.36-1.317.899 0 1.692.455 2.252 1.17l.108.147 7.224 10.236.052.082a.903.903 0 0 1-.317 1.207 1.01 1.01 0 0 1-1.293-.177l-.06-.076L12.742 8.49l-.108-.139c-.251-.292-.489-.357-.634-.357-.166 0-.452.085-.742.496L4.034 18.727z"/></svg>
